resources/bing-to-google.svg

<svg width="16" height="16" fill="#f4f4f7" fill-opacity="context-fill-opacity">
  <path d="M15.727 6.545H8.273V7.81L4.336 6.604V5.382a4.713 4.713 0 0 1 3.937-2.109c1.127 0 2.145.4 2.945 1.055L13.545 2C12.127.764 10.309 0 8.272 0a7.973 7.973 0 0 0-6.95 4.034L.091 3.659v10.108L3.279 16l1.415-.843A7.987 7.987 0 0 0 8.273 16c4 0 7.636-2.909 7.636-8 0-.473-.073-.982-.182-1.455zM3.335 12.03l3.14-1.652-1.476-.668-.996-2.162 4.93 1.51v2.409l-1.838 1.095-3.384 2.016-.388.232-2.232-1.564V5.009l2.245.687-.001 6.334zm5.498.661 1.101-.656-.001-2.399h2.631c-.366 1.793-1.798 2.878-3.731 3.055z"/>
</svg>

<svg xmlns="http://www.w3.org/2000/svg" width="16" height="16" fill="#f4f4f7" fill-opacity="context-fill-opacity" viewBox="0 0 16 16"><path d="M15.727,6.545H8.273V7.81L4.336,6.604V5.697V5.382C5.182,4.11,6.625,3.273,8.273,3.273c1.127,0,2.145,0.4,2.945,1.055	L13.545,2c-1.418-1.236-3.236-2-5.273-2c-2.988,0-5.576,1.622-6.95,4.034L0.091,3.659v1.35v8.237v0.521L3.279,16l1.415-0.843	C5.77,15.694,6.983,16,8.273,16c4,0,7.636-2.909,7.636-8C15.909,7.527,15.836,7.018,15.727,6.545z M3.335,12.03l3.14-1.652	L4.999,9.71L4.003,7.548l4.93,1.51v2.409l-1.838,1.095c-1.128,0.672-2.256,1.344-3.384,2.016L3.323,14.81l-2.232-1.564	c0,0,0-0.703,0-1.724c0-1.846,0-4.745,0-6.513l2.245,0.687L3.335,12.03z M8.833,12.691l1.101-0.656L9.933,9.636h2.631	C12.198,11.429,10.766,12.514,8.833,12.691z"/></svg>
